!!!!SEGMENT: pl-wnifc--13846--022_anonim--piesni-polskie-i-ruskie-ludu-galicyjskiego-22-gospodarzu-gospodarzu-kto-u-ciebie-bywa.krn
!!!kernsource:
!!!cenid: 18xx:3244
!!!COM: Anonim
!!!COM-rismid: pe30004985
!!!CDT:
!!!CNT:
!!!GTL: Pieśni polskie i ruskie ludu galicyjskiego
!!!OTL: 22. Gospodarzu, gospodarzu, kto u ciebie bywa
!!!PDT: 1833
!!!AGN:
!!!SMS-siglum: PL-Wnifc
!!!SMS-shelfmark: 13846
!!!SMS-shelfwork: 022 G
!!!SMS-variant:
!!!SMS-altvar:
!!!NIFC-rismid: 1001036780
!!!URL-scan: http://repozytorium.nifc.pl/skany/pl-wnifc-nut--13846
!!!ONB-nifc:
!!!OMD: Tempo di Mazur
!!!key: D
**kern	**kern	**dynam	**kern	**text
*part2	*part2	*part2	*part1	*part1
*staff3	*staff2	*	*staff1	*staff1
*I"Fortepian	*I"Fortepian	*	*I"Głos	*
*Ipiano	*Ipiano	*	*Ivox	*
*ICklav	*ICklav	*	*ICvox	*
*IGacmp	*IGacmp	*	*IGsolo	*
*clefF4	*clefG2	*	*clefG2	*
*k[f#c#]	*k[f#c#]	*	*k[f#c#]	*
*D:	*D:	*	*D:	*
*M3/8	*M3/8	*	*M3/8	*
=1-	=1-	=1-	=1-	=1-
!	!	!	!LO:TX:a:t=D.a.10	!
4DD/ 4D/	8r	.	16dd\	Go-
.	.	.	16a/	-spo-
.	(16d/LL 16f#/	.	8dd\	-da-
.	16A/JJ)	.	.	.
8r	8d/ 8f#/	.	8ff#\	-rzu,
=2	=2	=2	=2	=2
4DD/ 4D/	8r	.	16dd\	go-
.	.	.	16a/	-spo-
.	16d/LL 16f#/	.	8dd\	-da-
.	16A/JJ	.	.	.
8r	8d/ 8f#/	.	8ff#\	-rzu,
!!LO:LB:g=original
=3	=3	=3	=3	=3
4AAA/ 4AA/	8r	.	16ff#\	kto
.	.	.	16gg\	u
.	8A</L 8c#/ 8g/	.	8ee\	cie-
8r	8A</J 8c#/ 8g/	.	8cc#/	-bie
=4	=4	=4	=4	=4
4DD/ 4D/	8r	.	(16ee\LL	by-
.	.	.	16dd\JJ)	.
.	4A</ 4d/ 4f#/	.	4dd\	-wa,
8r	.	.	.	.
=5	=5	=5	=5	=5
!	!	!LO:DY:b=2:t=sf.:rj	!	!
8DD/ 8D/	16f#\`LL 16a\ 16dd\	sf	16dd\	za-
.	16f#\`JJ 16a\	.	16a/	-wsze
8D\L 8F#\ 8A\	8f#\`L 8dd\	.	8dd\	we-
8D\J 8F#\ 8A\	8a\`J 8ff#\	.	8ff#\	-sół
!!LO:LB:g=original
=6	=6	=6	=6	=6
8DD/ 8D/	16f#\LL 16a\ 16dd\	.	16dd\	za-
.	16f#\JJ 16a\	.	16a/	-wsze
8D\L 8F#\ 8A\	8f#\L 8a\ 8dd\	.	8dd\	we-
8D\J 8F#\ 8A\	8a\J 8dd\ 8ff#\	.	8ff#\	-sół
=7	=7	=7	=7	=7
8AAA/ 8AA/	16a\LL 16ff#\	.	16ff#\	ni-
.	16a\JJ 16gg\	.	16gg\	-gdy
8A\L 8c#\	8.a\L 8.ee\	.	8.ee\	nie
8A\J 8e\	.	.	.	.
.	16g\Jk 16cc#\	.	16cc#\	po-
=8	=8	=8	=8	=8
8DD/	(16g\LL 16ee\	.	(16ee\LL	-zié-
.	16f#/JJ) 16dd/	.	16dd\JJ)	.
(8D\L 8A\	4f#/ 4dd/	.	4dd\	-wa
8D\J) 8d\	.	.	.	.
!!LO:PB:g=original
=9||	=9||	=9||	=9||	=9||
8AAA/ 8AA/	8a\L 8aa\	.	8aa\	hej,
8A\L 8c#\ 8e\	8.ee\ 8.gg\	.	8.gg\	ha!
8A\J 8c#\ 8e\	.	.	.	.
.	16cc#\Jk 16ee\	.	16ee\	do
=10	=10	=10	=10	=10
8DD/ 8D/	(16ee\LL 16gg\	.	(16gg\LL	li-
.	16dd\JJ) 16ff#\	.	16ff#\JJ)	.
8A\L 8d\ 8f#\	4dd\ 4ff#\	.	4ff#\	-cha
8A\J 8d\ 8f#\	.	.	.	.
=11	=11	=11	=11	=11
8AAA/ 8AA/	16a\LL 16aa\	.	16aa\	daj-
.	16aa\JJ	.	16aa\	-cie
8A\L 8c#\ 8e\	8ee\L 8gg\	.	8gg\	nam
8A\J 8c#\ 8e\	8cc#\J 8ee\	.	8ee\	kie-
!!LO:LB:g=original
=12	=12	=12	=12	=12
8DD/ 8D/	(16ee\LL 16gg\	.	(16gg\LL	-li-
.	16dd\JJ) 16ff#\	.	16ff#\JJ)	.
8A\L 8d\ 8f#\	4dd\ 4ff#\	.	4ff#\	-cha,
8A\J 8d\ 8f#\	.	.	.	.
=13	=13	=13	=13	=13
8DD/L 8D/	16f#\LL 16a\ 16dd\	.	16dd\	a
.	16f#\JJ 16a\ 16dd\	.	16dd\	za
8FF#/ 8F#/	8f#\L 8a\ 8dd\	.	8dd\	je-
8DD/J 8D/	8f#\J 8a\ 8dd\	.	8dd\	-go
=14	=14	=14	=14	=14
8AAA/ 8AA/	8a\ 8cc#\ 8ee\	.	8ee\	zdro-
8AAA/L 8AA/	4a\ 4cc#\ 4ee\ 4aa\	.	4aa\	-wie
8AAA/J 8AA/	.	.	.	.
!!LO:LB:g=original
=15	=15	=15	=15	=15
8DD/L 8D/	16a\LL 16ff#\	.	16ff#\	niech
.	16a\JJ 16ee\	.	16ee\	nam
8AAA/ 8AA/	8.a\L 8.aa\	.	8.aa\	szu-
8AA\J 8A\	.	.	.	.
.	16g\Jk 16cc#\	.	16cc#\	-mi
=16	=16	=16	=16	=16
8DD/ 8D/	(16g\LL 16ee\	.	(16ee\LL	wgło-
.	16f#\JJ) 16dd\	.	16dd\JJ)	.
(8D\L 8A\	4f#\ 4dd\	.	4dd\	-wie!
8D\J) 8d\	.	.	.	.
!!LO:LB:g=original
==	==	==	==	==
*-	*-	*-	*-	*-
!!!system-decoration: s1,{(s2,s3)}
!!!RDF**kern: < = below
!!!RDF**kern: > = above
!!!ENC: Marta Chmielewska
!!!END: 2021-11-10
